X:0830
T:Capt. Sinclair's Reel.
M:C|
L:1/8
Q:1/2=100
I: :: ||
Z:Jack Campin * www.campin.me.uk * 2009
K:A Mixolydian
a|A/A/A (cd) e2ea|efce       fBBa|A/A/A cd e2ea|ceac     eAA:|
e|cAec       aefc|B/B/B  ce  fBBe|cAec     aefc|e/e/e ac eAA
e|cAec       aefc|B/B/B (ce) fBBd|cedf     ceBd|ceac     ecA|]
<end>
<start>
